!!!!SEGMENT: pl-wtm--r-730-20-m_moniuszko-stanislaw--wiosna.krn
!!!cenid: 18xx:1700
!!!COM: Moniuszko, Stanisław
!!!COM-rismID: pe30008351
!!!CDT: 1819/05/05-1872/06/04
!!!CNT: Polish
!!!OTL: Wiosna
!!!PDT:
!!!AGN: Secular
!!!SMS-siglum: PL-Wtm
!!!SMS-shelfmark: R 730/20/M
!!!SMS-shelfwork: W
!!!SMS-variant:
!!!SMS-altvar:
!!!NIFC-rismSourceID: 1001099824
!!!NIFC-islandoraID:
!!!URL-pdf-islandora:
!!!URL-scan:
!!!ONB-nifc: Skan 0023-0024, No. 772
!!!AIN: 1 piano 1 vox
!!!key:
**kern	**kern	**dynam	**kern	**text	**text	**text	**dynam
*part2	*part2	*part2	*part1	*part1	*part1	*part1	*part1
*staff3	*staff2	*	*staff1	*staff1	*staff1	*staff1	*
*Ipiano	*Ipiano	*	*Ivox	*	*	*	*
*I"Piano	*I"Piano	*	*I"[Voice]	*	*	*	*
*I'pf	*I'pf	*	*I'[V]	*	*	*	*
*clefF4	*clefG2	*	*clefG2	*	*	*	*
*k[f#c#]	*k[f#c#]	*	*k[f#c#]	*	*	*	*
*D:	*D:	*	*D:	*	*	*	*
*M3/8	*M3/8	*	*M3/8	*	*	*	*
=1	=1	=1	=1	=1	=1	=1	=1
!	!	!	!LO:TX:a:i:t=andantino.	!	!	!	!
!LO:TX:t=P:problem=all\right&colon; global	!	!	!LO:TX:a:i:t=„Wiosna”	!	!	!	!
!	!	!LO:DY:b:rj	!	!	!	!	!
16ALL 16F# 16D\	16aLL 16f#/	p	4.r	.	.	.	.
16A 16F# 16D\	16aJ 16f#/	.	.	.	.	.	.
16A 16F# 16D\	8a 8f#/	.	.	.	.	.	.
16A 16F# 16D\	.	.	.	.	.	.	.
16d 16A 16F#\	8ddJ 8a/	.	.	.	.	.	.
16dJJ 16A 16F#\	.	.	.	.	.	.	.
!LO:TX:t=[segno]	!LO:TX:t=[segno]	!	!LO:TX:t=[segno]	!	!	!	!
=2||	=2||	=2||	=2||	=2||	=2||	=2||	=2||
!	!LO:TX:t=P:problem=all\right&colon; global	!	!	!	!	!	!
16eLL 16d 16A\	(>4ee 4dd [<4a\	.	4.r	.	.	.	.
16e 16d 16A\	.	.	.	.	.	.	.
16e 16d 16A\	.	.	.	.	.	.	.
16e 16d 16A\	.	.	.	.	.	.	.
16e 16c# 16A\	8aa 8cc# 8a\])	.	.	.	.	.	.
16eJJ 16c# 16A\	.	.	.	.	.	.	.
=3	=3	=3	=3	=3	=3	=3	=3
!	!LO:N:vis=8	!	!	!	!	!	!
16dLL 16A 16D\	16aLL 16f#/	.	4.r	.	.	.	.
!	!LO:N:vis=8	!	!	!	!	!	!
16A 16F# 16D\	16aJ 16f#/	.	.	.	.	.	.
16A 16F# 16D\	8a 8f#/	.	.	.	.	.	.
16A 16F# 16D\	.	.	.	.	.	.	.
16d 16A 16F#\	8ddJ 8a/	.	.	.	.	.	.
16dJJ 16A 16F#\	.	.	.	.	.	.	.
=4	=4	=4	=4	=4	=4	=4	=4
16eLL 16d 16A\	(>4ee 4dd [<4a\	.	4.r	.	.	.	.
16e 16d 16A\	.	.	.	.	.	.	.
16e 16d 16A\	.	.	.	.	.	.	.
16e 16d 16A\	.	.	.	.	.	.	.
16e 16c# 16A\	8aa 8cc# 8a\])	.	.	.	.	.	.
16eJJ 16c# 16A\	.	.	.	.	.	.	.
=5	=5	=5	=5	=5	=5	=5	=5
16eLL 16cn 16A\	16eeLL 16ccn\	.	4.r	.	.	.	.
16e 16c 16A\	16eeJ 16cc\	.	.	.	.	.	.
16e 16c 16A\	8ee 8cc\	.	.	.	.	.	.
16e 16c 16A\	.	.	.	.	.	.	.
16d 16A 16D\	8ff#J 8cc\	.	.	.	.	.	.
16dJJ 16A 16D\	.	.	.	.	.	.	.
=6	=6	=6	=6	=6	=6	=6	=6
16dLL 16G\	(>4aa (<4ccn\	.	4.r	.	.	.	.
16d 16G\	.	.	.	.	.	.	.
16d 16G\	.	.	.	.	.	.	.
16d 16G\	.	.	.	.	.	.	.
16d 16G\	8gg 8b\))	.	.	.	.	.	.
16dJJ 16G\	.	.	.	.	.	.	.
=7	=7	=7	=7	=7	=7	=7	=7
16dLL 16B 16G'\	16ddLL 16b'\	.	4.r	.	.	.	.
16d 16B 16G'\	16ddJ 16b'\	.	.	.	.	.	.
16B 16G'\	8dd 8b'\	.	.	.	.	.	.
16B 16G'\	.	.	.	.	.	.	.
16G 16E 16AA'\	8eeJ 8cc#'\	.	.	.	.	.	.
16GJJ 16E 16AA'\	.	.	.	.	.	.	.
=8	=8	=8	=8	=8	=8	=8	=8
*tremolo	*	*	*	*	*	*	*
16A 16F# 16D\LL	4ff# 4dd\	.	4.r	.	.	.	.
16A 16F# 16D\	.	.	.	.	.	.	.
16d 16A 16F#\	.	.	.	.	.	.	.
16d 16A 16F#\	.	.	.	.	.	.	.
16f# 16d 16A\	8r	.	.	.	.	.	.
16f# 16d 16A\JJ	.	.	.	.	.	.	.
*Xtremolo	*	*	*	*	*	*	*
=9	=9	=9	=9	=9	=9	=9	=9
!	!	!LO:DY:b:rj:t=pp.	!	!	!	!	!
(>16d\LL	16aLL 16f#/	pp	16a/	Bły-	Paś	łza	.
16d\	16a 16f#/	.	16a/	-szczą	się	wy-	.
16d\	16a 16f#/	.	8a/	Kro-	błą-	-bie-	.
16d\	16a 16f#/	.	.	.	.	.	.
16d\	16b 16f#/	.	8b/	-ple	-kay	-gła	.
16d\JJ)	16bJJ 16f#/	.	.	.	.	.	.
!!LO:LB:g=original
=10	=10	=10	=10	=10	=10	=10	=10
16d\LL	16bLL 16f#/	.	4b/	ro-	trzod-	z o-	.
16d\	16b 16f#/	.	.	.	.	.	.
16d\	16b 16f#/	.	.	.	.	.	.
16d\	16b 16f#/	.	.	.	.	.	.
16d\	16a 16f#/	.	8a/	-sy,	-ko,	-ka,	.
16d\JJ	16aJJ 16f#/	.	.	.	.	.	.
=11	=11	=11	=11	=11	=11	=11	=11
16c#\LL	16aLL 16g 16e/	.	16a/	mru-	ja	ze-	.
(>16c#\	16a 16g 16e/	.	16a/	-czy	pod	-mną	.
16c#\	16a 16g 16e/	.	8a/	zdróy	ska-	stru-	.
16c#\	16a 16g 16e/	.	.	.	.	.	.
16c#\)	16b 16g 16e/	.	8b/	po	-łą	-myk	.
16c#\JJ	16bJJ 16g 16e/	.	.	.	.	.	.
=12	=12	=12	=12	=12	=12	=12	=12
16c#\LL	16bLL 16g 16e/	.	4b/	bło-	sią-	śpie-	.
16c#\	16b 16g 16e/	.	.	.	.	.	.
16c#\	16b 16g 16e/	.	.	.	.	.	.
16c#\	16b 16g 16e/	.	.	.	.	.	.
16c#\	16a 16g 16e/	.	8a/	-ni,	-dę,	-wa,	.
16c#\JJ	16aJJ 16g 16e/	.	.	.	.	.	.
=13	=13	=13	=13	=13	=13	=13	=13
16d\LL	16aLL 16f#/	.	16a/	u-	pio-	do	.
!	!	!LO:HP:b	!	!	!	!	!
16d\	16aJ 16f#/	<	16a/	-kry-	-snkę	mnie	.
16d 16A\	8a 8f#/	.	8a/	-ta	lu-	się	.
16d 16A\	.	.	.	.	.	.	.
!	!	!	!LO:TX:t=P:problem=all\right&colon; global	!	!	!	!
16d 16A 16F#\	8ddJ 8a/	[[	8dd\	we	-bą,	z wy-	.
16dJJ 16A 16F#\	.	.	.	.	.	.	.
=14	=14	=14	=14	=14	=14	=14	=14
16dLL 16A 16D\	8ff#L 8f#/	.	8ff#\L	wrzo-	słod-	-so-	.
!	!	!LO:HP:b	!	!	!	!	!
16d 16A 16D\	.	>	.	.	.	.	.
16d 16A 16D\	8ee 8a/	.	8ee\J	.	.	.	.
16d 16A 16D\	.	.	.	.	.	.	.
16A 16F# 16D\	8dd/J	]	8dd\	-sy	-ką,	-ka	.
16AJJ 16F# 16D\	.	.	.	.	.	.	.
=15	=15	=15	=15	=15	=15	=15	=15
16ALL 16E 16C#\	(>4ee (<4e^</	.	16ee\	gdzieś	śpie-	sko-	.
16A 16E 16C#\	.	.	16ee\	ja-	-wać	-wro-	.
16A 16E 16C#\	.	.	8ee\	-łów-	so-	-nek	.
16A 16E 16C#\	.	.	.	.	.	.	.
16A 16E 16C#\	8a/))	.	8a/	-ka	-bie	od-	.
16AJJ 16E 16C#\	.	.	.	.	.	.	.
=16	=16	=16	=16	=16	=16	=16	=16
16G#XLL 16E 16BB\	4dd 4d^</	.	4dd\	dzwo-	bę-	-zy-	.
16G# 16E 16BB\	.	.	.	.	.	.	.
16G# 16E 16BB\	.	.	.	.	.	.	.
16G# 16E 16BB\	.	.	.	.	.	.	.
16E 16D 16BB\	8g#X/	.	8g#X/	-ni.	-dę.	-wa.	.
16EJJ 16D 16BB\	.	.	.	.	.	.	.
=17	=17	=17	=17	=17	=17	=17	=17
!	!	!LO:DY:b	!	!	!	!	!
16E 16C# 16AA/	16a/	pp	16a/	Pie-	U-	Jak-	.
16A\LL	16eLL 16c#/	.	16a/	-kną	-stroń	-że	.
16A\	16e 16c#/	.	8a/	mi-	mi-	ła-	.
16A\	16e 16c#/	.	.	.	.	.	.
16A\	16e 16c#/	.	8b/	-łą	-ła	-dny	.
16A\JJ	16eJJ 16c#/	.	.	.	.	.	.
=18	=18	=18	=18	=18	=18	=18	=18
16ALL 16G\	16eLL 16c#/	.	4b/	bło-	ci-	chy-	.
16A 16G\	16e 16c#/	.	.	.	.	.	.
16A 16G\	16e 16c#/	.	.	.	.	.	.
16A 16G\	16e 16c#/	.	.	.	.	.	.
16A 16G\	16e 16c#/	.	8a/	-nią,	-cha!	-ży	.
16AJJ 16G\	16eJJ 16c#/	.	.	.	.	.	.
!!LO:LB:g=original
=19	=19	=19	=19	=19	=19	=19	=19
16ALL 16F#\	16aLL 16d/	.	16a/	le-	ja-	le-	.
16A 16F#\	16aJ 16d/	.	16a/	-ci	-kiś	-dwo	.
16A 16F#\	8a 8d/	.	8a/	wzrok	żal	wi-	.
16A 16F#\	.	.	.	.	.	.	.
16A 16F#\	8aJ 8d/	.	8b/	we-	w pa-	-dny	.
16AJJ 16F#\	.	.	.	.	.	.	.
=20	=20	=20	=20	=20	=20	=20	=20
16c#LL 16G 16E\	4b/	.	4b/	-so-	-mię-	o-	.
16c# 16G 16E\	.	.	.	.	.	.	.
16c# 16G 16E\	.	.	.	.	.	.	.
16c# 16G 16E\	.	.	.	.	.	.	.
16c# 16G 16E\	8a/	.	8a/	-ło,	-ci,	-ku	.
16c#JJ 16G 16E\	.	.	.	.	.	.	.
=21	=21	=21	=21	=21	=21	=21	=21
!	!	!	!	!	!	!	!LO:HP:a
16dLL 16A 16F# 16D\	16aLL 16f#/	.	16a/	w ko-	cze-	co-	<
!	!	!LO:HP:b	!	!	!	!	!
16A 16F# 16D\	16aJ 16f#/	<	16a/	-ło	-goś	-raz	.
16A 16F# 16D\	8a 8f#/	.	8a/	kwia-	ser-	wy-	.
16A 16F# 16D\	.	.	.	.	.	.	.
16A 16F# 16D\	8ddJ 8f#/	[[	8dd\	-ty	-ce	-żey,	[[
16AJJ 16F# 16D\	.	.	.	.	.	.	.
=22	=22	=22	=22	=22	=22	=22	=22
!	!	!LO:HP:b	!	!	!	!	!LO:HP:a
16dLL 16F# 16D\	4.a 4.f#/	>	8ff#\L	wio-	wzdy-	wy-	>
16d 16F# 16D\	.	.	.	.	.	.	.
16c# 16F# 16D\	.	]	8ee\J	.	.	.	.
16c# 16F# 16D\	.	.	.	.	.	.	.
16B 16F# 16D\	.	.	8dd\	-nią,	-cha	-żey,	]]
16BJJ 16F# 16D\	.	.	.	.	.	.	.
=23	=23	=23	=23	=23	=23	=23	=23
16c#LL 16A 16D\	4cc# 4a^<\	.	(>4cc#\	Kwit-	w o-	już	.
16c# 16A 16D\	.	.	.	.	.	.	.
16c# 16A 16D\	.	.	.	.	.	.	.
16c# 16A 16D\	.	.	.	.	.	.	.
16B 16G 16D\	8b 8g\	.	8b\)	-ną	-ku	.	.
16BJJ 16G 16D\	.	.	.	.	.	.	.
=24	=24	=24	=24	=24	=24	=24	=24
16dLL 16B 16D\	8ddL 8b\	.	8dd\	ga-	łza	zgi-	.
16d 16B 16D\	.	.	.	.	.	.	.
16c# 16A 16D\	8cc# 8a\	.	8cc#\	.	.	-nął	.
16c# 16A 16D\	.	.	.	.	.	.	.
16B 16G 16D\	8bJ 8g\	.	8b\	-ie	się	w o-	.
16BJJ 16G 16D\	.	.	.	.	.	.	.
=25	=25	=25	=25	=25	=25	=25	=25
16ALL 16F# 16D\	16aLL 16f#/	.	8b/	w ko-	krę-	-bło-	.
16A 16F# 16D\	16aJ 16f#/	.	.	.	.	.	.
16A 16F# 16D\	8a 8f#/	.	8a/	-ło.	-ci.	-ku	.
16A 16F# 16D\	.	.	.	.	.	.	.
!	!	!	!LO:TX:a:i:t=DS&colon;	!	!	!	!
16d 16A 16F#\	8ddJ 8a/	.	8r	.	.	.	.
16dJJ 16A 16F#\	.	.	.	.	.	.	.
!LO:TX:t=[segno]	!LO:TX:t=[segno]	!	!LO:TX:t=[segno]	!	!	!	!
=26||	=26||	=26||	=26||	=26||	=26||	=26||	=26||
16dLL 16B 16G\	(>8ddL 8b\	.	4.r	.	.	.	.
16dJ 16B 16G\	.	.	.	.	.	.	.
8d 8G\	8cc# 8a\	.	.	.	.	.	.
8dJ 8G\	8bJ 8g\)	.	.	.	.	.	.
!!LO:PB:g=original
=27-	=27-	=27	=27-	=27	=27	=27	=27
!	!LO:TX:a:i:t=piu mosso.	!	!LO:TX:a:i:t=piu mosso.	!	!	!	!
16dLL 16A\	16aLL 16f#/	.	8r	.	.	.	.
16dJJ 16A\	16aJJ 16f#/	.	.	.	.	.	.
8d 8A\	8a 8f#/	.	8r	.	.	.	.
8r	8r	.	8a/	U-	.	.	.
=28	=28	=28	=28	=28	=28	=28	=28
16eLL 16A\	16cc#LL 16g/	.	8ff#\	-le-	.	.	.
16eJJ 16A\	16cc#JJ 16g/	.	.	.	.	.	.
8e 8A\	8cc# 8g/	.	8ee\	-ciał	.	.	.
8r	8r	.	16r	.	.	.	.
.	.	.	16cc#\	szczę-	.	.	.
=29	=29	=29	=29	=29	=29	=29	=29
16dLL 16A\	16ddLL 16f#/	.	8dd\	-śli-	.	.	.
16dJJ 16A\	16ddJJ 16f#/	.	.	.	.	.	.
8d 8A\	8a 8f#/	.	8a/	-wy	.	.	.
8r	8r	.	16r	.	.	.	.
.	.	.	16a/	pio-	.	.	.
=30	=30	=30	=30	=30	=30	=30	=30
16ELL 16AA/	16gLL 16c#/	.	8cc#\	-sen-	.	.	.
16EJJ 16AA/	16gJJ 16c#/	.	.	.	.	.	.
8E 8AA/	8g 8c#/	.	8b\	-kę	.	.	.
8r	8r	.	8a/	swą	.	.	.
=31	=31	=31	=31	=31	=31	=31	=31
16D\LL	16f#LL 16d/	.	8a/	gło-	.	.	.
16D\JJ	16f#JJ 16d/	.	.	.	.	.	.
8D\	8f# 8d/	.	8f#/	-si,	.	.	.
8r	8r	.	16r	.	.	.	.
.	.	.	16a/	i	.	.	.
=32	=32	=32	=32	=32	=32	=32	=32
!	!LO:TX:a:i:t=accellerando.	!	!	!	!	!	!
16F#LL 16FF#/	16aLL 16d/	.	8a/	zie-	.	.	.
16F#JJ 16FF#/	16aJJ 16d/	.	.	.	.	.	.
!	!	!	!LO:TX:b:i:t=cres_cen_do:problem=dynamics with line extensions	!	!	!	!LO:HP:a:i:t=cres_cen_do:ext=ud
8F# 8FF#/	8a 8d/	.	8g#X/	-mi	.	.	<
!	!LO:TX:b:i:t=cres_cen_do.:problem=dynamics with line extensions	!LO:HP:b:i:t=cres_cen_do.:ext=ud	!	!	!	!	!
.	.	<	.	.	.	.	.
8ryy	8r	.	8a/	śpiew	.	.	.
=33	=33	=33	=33	=33	=33	=33	=33
16GLL 16GG/	16bLL 16d/	.	8cc#\	tkli-	.	.	.
16GJJ 16GG/	16bJJ 16d/	.	.	.	.	.	.
8G 8GG/	8b 8d/	.	8b\	-wy	.	.	.
8r	8r	.	16r	.	.	.	.
.	.	.	16b\	do	.	.	.
=34	=34	=34	=34	=34	=34	=34	=34
16A#XLL 16AA#X\	16cc#LL 16f# 16c#/	.	8cc#\	nie-	.	.	.
16A#JJ 16AA#\	16cc#JJ 16f# 16c#/	.	.	.	.	.	.
8A# 8AA#\	8cc# 8f# 8c#/	[	8dd\	-bios	.	.	[[
8r	8r	.	8ee\	za-	.	.	.
!!LO:LB:g=original
=35	=35	=35	=35	=35	=35	=35	=35
!	!	!LO:DY:b:rj	!	!	!	!	!
16BLL 16BB\	16f#LL 16d/	f>	4ee>^\	-no-	.	.	.
16BJJ 16BB\	16f#JJ 16d/	.	.	.	.	.	.
8B 8BB\	8f# 8d/	]	.	.	.	.	.
8r	8r	.	8dd\	-si,	.	.	.
=36	=36	=36	=36	=36	=36	=36	=36
!	!	!LO:DY:b:rj	!	!	!	!	!
16BLL 16G#X\	16e#XLL 16d/	p	8dd\	zie-	.	.	.
!	!	!	!LO:TX:a:i:t=dolce	!	!	!	!
.	.	.	.	.	.	.	.
16BJJ 16G#\	16e#JJ 16d/	.	.	.	.	.	.
8B 8G#\	8e# 8d/	.	8cc#\	-mi	.	.	.
8r	8r	.	8b\	spiew	.	.	.
=37	=37	=37	=37	=37	=37	=37	=37
16A\LL	16f#LL 16d/	.	8b\	tkli-	.	.	.
16A\JJ	16f#JJ 16d/	.	.	.	.	.	.
8A\	8f# 8d/	.	8a/	-wy	.	.	.
8r	8r	.	16r	.	.	.	.
.	.	.	16a/	do	.	.	.
=38	=38	=38	=38	=38	=38	=38	=38
!	!LO:TX:b:i:t=ritar	!	!LO:TX:a:i:t=ritar.	!	!	!	!
16ALL 16AA\	8cc#L 8g 8e/	.	8cc#\	nie-	.	.	.
16A\J	.	.	.	.	.	.	.
8A\	8b 8g 8d/	.	8b\	-bios	.	.	.
8A\J	8aJ 8g 8c#/	.	8a/	za-	.	.	.
=39	=39	=39	=39	=39	=39	=39	=39
!	!LO:TX:a:i:t=tempo 1mo	!	!	!	!	!	!
16ALL 16F# 16D\	16aLL 16f# 16d/	p	4.a/	-no-	.	.	.
16AJJ 16F# 16D\	16aJ 16f# 16d/	.	.	.	.	.	.
4A 4F# 4D^>\	8a 8f#/	.	.	.	.	.	.
.	8ddJ 8a/	.	.	.	.	.	.
=40	=40	=40	=40	=40	=40	=40	=40
16ALL 16G 16E 16D\	4ee 4dd 4a\	.	4.a/	.	.	.	.
16AJJ 16G 16E 16D\	.	.	.	.	.	.	.
4A 4G 4E 4D^<\	.	.	.	.	.	.	.
!	!LO:TX:t=P:dimin:problem	!	!	!	!	!	!
.	8aa 8cc# 8a\	>	.	.	.	.	.
=41	=41	=41	=41	=41	=41	=41	=41
16ALL 16F# 16D\	16aLL 16f#/	.	4f#/	-si.	.	.	.
16AJJ 16F# 16D\	16aJ 16f#/	.	.	.	.	.	.
4A 4F# 4D^<\	8a 8f#/	.	.	.	.	.	.
.	8ddJ 8a/	.	8r	.	.	.	.
=42	=42	=42	=42	=42	=42	=42	=42
16A\LL	(>4ee 4dd 4a\	.	4.r	.	.	.	.
16A\J	.	.	.	.	.	.	.
8A\J	.	.	.	.	.	.	.
8e 8A\	8aa 8cc# 8a\)	.	.	.	.	.	.
=43	=43	=43	=43	=43	=43	=43	=43
!	!	!LO:DY:b:rj:t=pp.	!	!	!	!	!
!LO:N:vis=4	!LO:N:vis=4	!	!	!	!	!	!
4.d\;<	4.ff# 4dd 4a;>^<\	pp	4.r;>	.	.	.	.
==	==	==	==	==	==	==	==
*-	*-	*-	*-	*-	*-	*-	*-
!!!system-decoration: {(s1)(s2,s3)}
!!!RDF**dynam: > = "dimin", 'fontstyle="italic"
!!!RDF**kern: > = above
!!!RDF**kern: < = below
!!!EED: Antoni Szymański
!!!EEV: 2021-04-19
!!!ENC: Marcin Jachim
!!!END: 2021-04-01
!!!YEC: Copyright 2022 Narodowy Instytut Fryderyka Chopina (https://polishscores.org)
!!!YEM: Licence CC BY 4.0 (https://creativecommons.org/licenses/by/4.0)
